packages/icons/svg/Device_Laptop_48px.svg

<svg xmlns="http://www.w3.org/2000/svg" viewBox="0 0 48 48"><path d="M42 32h-1V12a2 2 0 00-2-2H9a2 2 0 00-2 2v20H6a2 2 0 00-2 2v3a4 4 0 004 4h32a4 4 0 004-4v-3a2 2 0 00-2-2zM10 13h28v19H10zm31 24a1 1 0 01-1 1H8a1 1 0 01-1-1v-2h34z"/></svg>

<svg xmlns="http://www.w3.org/2000/svg" viewBox="0 0 48 48"><defs></defs><g id="Icon"><path  d="M42,32H41V12a2,2,0,0,0-2-2H9a2,2,0,0,0-2,2V32H6a2,2,0,0,0-2,2v3a4,4,0,0,0,4,4H40a4,4,0,0,0,4-4V34A2,2,0,0,0,42,32ZM10,13H38V32H10ZM41,37a1,1,0,0,1-1,1H8a1,1,0,0,1-1-1V35H41Z"/></g></svg>
